src/places/symbolic/folder-open-symbolic.svg

<?xml version="1.0" encoding="UTF-8" standalone="no"?>
<svg
   width="16"
   height="16"
   version="1.1"
   viewBox="0 0 16 16"
   id="svg1"
   sodipodi:docname="folder-open-symbolic.svg"
   inkscape:version="1.3.2 (091e20ef0f, 2023-11-25)"
   xmlns:inkscape="http://www.inkscape.org/namespaces/inkscape"
   xmlns:sodipodi="http://sodipodi.sourceforge.net/DTD/sodipodi-0.dtd"
   xmlns="http://www.w3.org/2000/svg"
   xmlns:svg="http://www.w3.org/2000/svg">
  <sodipodi:namedview
     id="namedview1"
     pagecolor="#ffffff"
     bordercolor="#111111"
     borderopacity="1"
     inkscape:showpageshadow="0"
     inkscape:pageopacity="0"
     inkscape:pagecheckerboard="1"
     inkscape:deskcolor="#d1d1d1"
     inkscape:zoom="25.09375"
     inkscape:cx="3.6463263"
     inkscape:cy="3.0087173"
     inkscape:window-width="1920"
     inkscape:window-height="1011"
     inkscape:window-x="0"
     inkscape:window-y="0"
     inkscape:window-maximized="1"
     inkscape:current-layer="svg1" />
  <defs
     id="defs1">
    <style
       id="current-color-scheme"
       type="text/css">.ColorScheme-Text { color:#363636; } .ColorScheme-Text { color:#363636; }</style>
  </defs>
  <path
     id="path6"
     style="color:#000000;fill:#363636;-inkscape-stroke:none"
     d="M 1.9238281 1.4863281 C 0.85549224 1.4863281 -0.01953125 2.3628846 -0.01953125 3.4316406 L -0.01953125 11.396484 L -0.01953125 12.548828 C -0.01953125 12.749291 0.01131616 12.942608 0.068359375 13.125 C 0.087369797 13.185789 0.11008413 13.244617 0.13476562 13.302734 C 0.1350012 13.30329 0.13452954 13.304132 0.13476562 13.304688 C 0.15926787 13.362237 0.187057 13.418058 0.21679688 13.472656 C 0.54681665 14.079744 1.1888873 14.494141 1.9238281 14.494141 L 14.076172 14.494141 C 14.877082 14.494141 15.568759 14.001241 15.865234 13.304688 C 15.86547 13.304132 15.864999 13.30329 15.865234 13.302734 C 15.889909 13.244617 15.912637 13.185789 15.931641 13.125 C 15.988665 12.942608 16.019531 12.749291 16.019531 12.548828 L 16.019531 10.240234 L 16.019531 5.4492188 C 16.019531 4.2211117 15.016137 3.2128906 13.789062 3.2128906 L 7.1328125 3.2128906 C 6.9664922 3.2128906 6.8154106 3.1205225 6.7402344 2.9707031 L 6.5234375 2.5390625 C 6.1997786 1.8955612 5.5387337 1.4863281 4.8183594 1.4863281 L 1.9238281 1.4863281 z M 1.9238281 2.4863281 L 4.8183594 2.4863281 C 5.1622304 2.4863281 5.4735417 2.6793842 5.6289062 2.9882812 L 5.8476562 3.4199219 C 6.091077 3.9050354 6.5896356 4.2128906 7.1328125 4.2128906 L 13.789062 4.2128906 C 14.474693 4.2128906 15.019531 4.7601021 15.019531 5.4492188 L 15.019531 8.5429688 C 14.739535 8.3857943 14.418254 8.2949219 14.076172 8.2949219 L 8.2851562 8.2949219 C 7.7543294 8.2949219 7.2684419 8.50923 6.9179688 8.8574219 C 6.6011351 9.1715338 6.1986015 9.4511719 6.0214844 9.4511719 L 1.9238281 9.4511719 C 1.5818656 9.4511719 1.2604616 9.5420442 0.98046875 9.6992188 L 0.98046875 3.4316406 C 0.98046875 2.8983796 1.3935361 2.4863281 1.9238281 2.4863281 z M 8.2851562 9.2949219 L 14.076172 9.2949219 C 14.607219 9.2949219 15.019531 9.7069738 15.019531 10.240234 L 15.019531 12.548828 C 15.019531 12.61558 15.012305 12.679834 15 12.742188 C 14.987695 12.804541 14.970732 12.865048 14.947266 12.921875 C 14.923799 12.978702 14.894812 13.031857 14.861328 13.082031 C 14.836329 13.119492 14.80737 13.154297 14.777344 13.1875 C 14.757232 13.209747 14.735078 13.229835 14.712891 13.25 C 14.679463 13.280363 14.645157 13.310709 14.607422 13.335938 C 14.557335 13.369424 14.503937 13.398423 14.447266 13.421875 C 14.390594 13.445327 14.331644 13.46232 14.269531 13.474609 C 14.207418 13.486899 14.142582 13.494141 14.076172 13.494141 L 1.9238281 13.494141 C 1.8575121 13.494141 1.7925303 13.486899 1.7304688 13.474609 C 1.6684072 13.46232 1.6093886 13.445326 1.5527344 13.421875 C 1.4960802 13.398424 1.4426721 13.369424 1.3925781 13.335938 C 1.3502501 13.307642 1.3122755 13.274952 1.2753906 13.240234 C 1.268329 13.233602 1.260754 13.227556 1.2539062 13.220703 C 1.2483599 13.215153 1.2436844 13.208817 1.2382812 13.203125 C 1.2027234 13.165582 1.1675764 13.125303 1.1386719 13.082031 C 1.1051569 13.031857 1.0762305 12.978703 1.0527344 12.921875 C 1.0292382 12.865047 1.0123245 12.804541 1 12.742188 C 0.98767549 12.679834 0.98046875 12.61558 0.98046875 12.548828 L 0.98046875 11.396484 C 0.98046875 10.863224 1.3935362 10.451172 1.9238281 10.451172 L 6.0214844 10.451172 C 6.7843377 10.451172 7.2804003 9.904173 7.6210938 9.5664062 C 7.7914467 9.3971621 8.0217544 9.2949219 8.2851562 9.2949219 z " />
</svg>

<?xml version="1.0" encoding="UTF-8"?>
<svg id="svg1" width="16" height="16" version="1.1" viewBox="0 0 16 16" xmlns="http://www.w3.org/2000/svg">
 <defs id="defs1">
  <style id="current-color-scheme" type="text/css">.ColorScheme-Text { color:#363636; } .ColorScheme-Text { color:#363636; }</style>
 </defs>
 <path id="path6" d="m1.9238 1.4863c-1.0683 0-1.9434 0.87656-1.9434 1.9453v7.9648 1.1523c0 0.20046 0.030847 0.39378 0.087891 0.57617 0.01901 0.060789 0.041725 0.11962 0.066406 0.17773 2.3558e-4 5.56e-4 -2.3608e-4 0.001398 0 0.001954 0.024502 0.057549 0.052291 0.11337 0.082031 0.16797 0.33002 0.60709 0.97209 1.0215 1.707 1.0215h12.152c0.80091 0 1.4926-0.4929 1.7891-1.1895 2.36e-4 -5.56e-4 -2.35e-4 -0.001398 0-0.001954 0.024675-0.058117 0.047403-0.11694 0.066407-0.17773 0.057024-0.18239 0.08789-0.37571 0.08789-0.57617v-2.3086-4.791c0-1.2281-1.0034-2.2363-2.2305-2.2363h-6.6562c-0.16632 0-0.3174-0.092368-0.39258-0.24219l-0.2168-0.43164c-0.32366-0.6435-0.9847-1.0527-1.7051-1.0527h-2.8945zm0 1h2.8945c0.34387 0 0.65518 0.19306 0.81055 0.50195l0.21875 0.43164c0.24342 0.48511 0.74198 0.79297 1.2852 0.79297h6.6562c0.68563 0 1.2305 0.54721 1.2305 1.2363v3.0938c-0.28-0.15717-0.60128-0.24805-0.94336-0.24805h-5.791c-0.53083 0-1.0167 0.21431-1.3672 0.5625-0.31683 0.31411-0.71937 0.59375-0.89648 0.59375h-4.0977c-0.34196 0-0.66337 0.090872-0.94336 0.24805v-6.2676c0-0.53326 0.41307-0.94531 0.94336-0.94531zm6.3613 6.8086h5.791c0.53105 0 0.94336 0.41205 0.94336 0.94531v2.3086c0 0.066752-0.007226 0.13101-0.019531 0.19336-0.012305 0.062353-0.029268 0.12286-0.052734 0.17969-0.023467 0.056827-0.052454 0.10998-0.085938 0.16016-0.024999 0.037461-0.053958 0.072266-0.083984 0.10547-0.020112 0.022247-0.042266 0.042335-0.064453 0.0625-0.033428 0.030363-0.067734 0.060709-0.10547 0.085938-0.050087 0.033486-0.10348 0.062485-0.16016 0.085937-0.056672 0.023452-0.11562 0.040445-0.17774 0.052734-0.062113 0.01229-0.12695 0.019532-0.19336 0.019532h-12.152c-0.066316 0-0.1313-0.007242-0.19336-0.019532-0.062062-0.012289-0.12108-0.029283-0.17773-0.052734s-0.11006-0.052451-0.16016-0.085937c-0.042328-0.028296-0.080303-0.060986-0.11719-0.095704-0.0070616-0.006632-0.014637-0.012678-0.021484-0.019531-0.0055463-0.00555-0.010222-0.011886-0.015625-0.017578-0.035558-0.037543-0.070705-0.077822-0.099609-0.12109-0.033515-0.050174-0.062441-0.10333-0.085938-0.16016-0.023496-0.056828-0.04041-0.11733-0.052734-0.17969-0.012325-0.062354-0.019531-0.12661-0.019531-0.19336v-1.1523c0-0.53326 0.41307-0.94531 0.94336-0.94531h4.0977c0.76285 0 1.2589-0.547 1.5996-0.88477 0.17035-0.16924 0.40066-0.27148 0.66406-0.27148z" color="#000000" fill="#363636" style="-inkscape-stroke:none"/>
</svg>
